assets/icons/functional/weather&nature/snowflake.svg

<svg width="32" height="32" viewBox="0 0 32 32" fill="none" xmlns="http://www.w3.org/2000/svg"><g id="Icon-Snowflake"><g clip-path="url(#clip0_13_356)"><g id="size=md (32px)"><g id="Snowflake"><path id="Vector" d="M16 8V24" stroke="#101828" stroke-width="2" stroke-linecap="round" stroke-linejoin="round"/><path id="Vector_2" d="M13 5L16 8L19 5" stroke="#101828" stroke-width="2" stroke-linecap="round" stroke-linejoin="round"/><path id="Vector_3" d="M13 27L16 24L19 27" stroke="#101828" stroke-width="2" stroke-linecap="round" stroke-linejoin="round"/><path id="Vector_4" d="M9.07422 12L22.9242 20" stroke="#101828" stroke-width="2" stroke-linecap="round" stroke-linejoin="round"/><path id="Vector_5" d="M4.97461 13.1L9.07461 12L7.97461 7.90002" stroke="#101828" stroke-width="2" stroke-linecap="round" stroke-linejoin="round"/><path id="Vector_6" d="M24.0258 24.1L22.9258 20L27.0258 18.9" stroke="#101828" stroke-width="2" stroke-linecap="round" stroke-linejoin="round"/><path id="Vector_7" d="M9.07422 20L22.9242 12" stroke="#101828" stroke-width="2" stroke-linecap="round" stroke-linejoin="round"/><path id="Vector_8" d="M7.97461 24.1L9.07461 20L4.97461 18.9" stroke="#101828" stroke-width="2" stroke-linecap="round" stroke-linejoin="round"/><path id="Vector_9" d="M27.0258 13.1L22.9258 12L24.0258 7.90002" stroke="#101828" stroke-width="2" stroke-linecap="round" stroke-linejoin="round"/></g></g></g></g><defs><clipPath id="clip0_13_356"><rect width="32" height="32" rx="5" fill="white"/></clipPath></defs></svg>

<svg xmlns="http://www.w3.org/2000/svg" width="32" height="32" fill="none"><g clip-path="url(#a)"><path stroke="#101828" stroke-linecap="round" stroke-linejoin="round" stroke-width="2" d="M16 8v16M13 5l3 3 3-3m-6 22 3-3 3 3M9.075 12l13.85 8m-17.95-6.9 4.1-1.1-1.1-4.1m16.05 16.2-1.1-4.1 4.1-1.1M9.075 20l13.85-8M7.975 24.1l1.1-4.1-4.1-1.1m22.05-5.8-4.1-1.1 1.1-4.1"/></g><defs><clipPath id="a"><rect width="32" height="32" fill="#fff" rx="5"/></clipPath></defs></svg>
